static/img/kroki/479e58ff942c05b9c0821178e0953247.svg

<?xml version="1.0" encoding="us-ascii" standalone="no"?><svg xmlns="http://www.w3.org/2000/svg" xmlns:xlink="http://www.w3.org/1999/xlink" contentStyleType="text/css" height="573px" preserveAspectRatio="none" style="width:384px;height:573px;" version="1.1" viewBox="0 0 384 573" width="384px" zoomAndPan="magnify"><defs/><g><!--class ai_job--><g id="elem_ai_job"><rect codeLine="23" fill="#3D176E" height="39.7891" id="ai_job" rx="2.5" ry="2.5" style="stroke:#000D19;stroke-width:0.5;" width="91" x="89.5" y="367.37"/><ellipse cx="104.5" cy="387.2645" fill="#ADD1B2" rx="11" ry="11" style="stroke:#181818;stroke-width:1.0;"/><path d="M107.4688,392.9052 Q106.8906,393.202 106.25,393.3427 Q105.6094,393.4989 104.9063,393.4989 Q102.4063,393.4989 101.0781,391.8583 Q99.7656,390.202 99.7656,387.077 Q99.7656,383.952 101.0781,382.2958 Q102.4063,380.6395 104.9063,380.6395 Q105.6094,380.6395 106.25,380.7958 Q106.9063,380.952 107.4688,381.2489 L107.4688,383.9677 Q106.8438,383.3895 106.25,383.1239 Q105.6563,382.8427 105.0313,382.8427 Q103.6875,382.8427 103,383.9208 Q102.3125,384.9833 102.3125,387.077 Q102.3125,389.1708 103,390.2489 Q103.6875,391.3114 105.0313,391.3114 Q105.6563,391.3114 106.25,391.0458 Q106.8438,390.7645 107.4688,390.1864 L107.4688,392.9052 Z " fill="#000000"/><text fill="#D9B8FF" font-family="Helvetica" font-size="17" lengthAdjust="spacing" textLength="49" x="123.5" y="393.1498">ai_job</text></g><!--class ai_resource--><g id="elem_ai_resource"><rect codeLine="26" fill="#3D176E" height="39.7891" id="ai_resource" rx="2.5" ry="2.5" style="stroke:#000D19;stroke-width:0.5;" width="137" x="54.5" y="167.79"/><ellipse cx="69.5" cy="187.6845" fill="#ADD1B2" rx="11" ry="11" style="stroke:#181818;stroke-width:1.0;"/><path d="M72.4688,193.3252 Q71.8906,193.622 71.25,193.7627 Q70.6094,193.9189 69.9063,193.9189 Q67.4063,193.9189 66.0781,192.2783 Q64.7656,190.622 64.7656,187.497 Q64.7656,184.372 66.0781,182.7158 Q67.4063,181.0595 69.9063,181.0595 Q70.6094,181.0595 71.25,181.2158 Q71.9063,181.372 72.4688,181.6689 L72.4688,184.3877 Q71.8438,183.8095 71.25,183.5439 Q70.6563,183.2627 70.0313,183.2627 Q68.6875,183.2627 68,184.3408 Q67.3125,185.4033 67.3125,187.497 Q67.3125,189.5908 68,190.6689 Q68.6875,191.7314 70.0313,191.7314 Q70.6563,191.7314 71.25,191.4658 Q71.8438,191.1845 72.4688,190.6064 L72.4688,193.3252 Z " fill="#000000"/><text fill="#D9B8FF" font-family="Helvetica" font-size="17" lengthAdjust="spacing" textLength="95" x="88.5" y="193.5698">ai_resource</text></g><!--class aws_bedrock_model_customization_job--><g id="elem_aws_bedrock_model_customization_job"><rect codeLine="29" fill="#3D176E" height="39.7891" id="aws_bedrock_model_customization_job" rx="2.5" ry="2.5" style="stroke:#000D19;stroke-width:0.5;" width="370" x="7" y="528.16"/><ellipse cx="22" cy="548.0545" fill="#ADD1B2" rx="11" ry="11" style="stroke:#181818;stroke-width:1.0;"/><path d="M24.9688,553.6952 Q24.3906,553.992 23.75,554.1327 Q23.1094,554.2889 22.4063,554.2889 Q19.9063,554.2889 18.5781,552.6483 Q17.2656,550.992 17.2656,547.867 Q17.2656,544.742 18.5781,543.0858 Q19.9063,541.4295 22.4063,541.4295 Q23.1094,541.4295 23.75,541.5858 Q24.4063,541.742 24.9688,542.0389 L24.9688,544.7577 Q24.3438,544.1795 23.75,543.9139 Q23.1563,543.6327 22.5313,543.6327 Q21.1875,543.6327 20.5,544.7108 Q19.8125,545.7733 19.8125,547.867 Q19.8125,549.9608 20.5,551.0389 Q21.1875,552.1014 22.5313,552.1014 Q23.1563,552.1014 23.75,551.8358 Q24.3438,551.5545 24.9688,550.9764 L24.9688,553.6952 Z " fill="#000000"/><text fill="#D9B8FF" font-family="Helvetica" font-size="17" lengthAdjust="spacing" textLength="328" x="41" y="553.9398">aws_bedrock_model_customization_job</text></g><!--class aws_resource--><g id="elem_aws_resource"><rect codeLine="32" fill="#3D176E" height="39.7891" id="aws_resource" rx="2.5" ry="2.5" style="stroke:#000D19;stroke-width:0.5;" width="155" x="172.5" y="267.58"/><ellipse cx="187.5" cy="287.4745" fill="#ADD1B2" rx="11" ry="11" style="stroke:#181818;stroke-width:1.0;"/><path d="M190.4688,293.1152 Q189.8906,293.412 189.25,293.5527 Q188.6094,293.7089 187.9063,293.7089 Q185.4063,293.7089 184.0781,292.0683 Q182.7656,290.412 182.7656,287.287 Q182.7656,284.162 184.0781,282.5058 Q185.4063,280.8495 187.9063,280.8495 Q188.6094,280.8495 189.25,281.0058 Q189.9063,281.162 190.4688,281.4589 L190.4688,284.1777 Q189.8438,283.5995 189.25,283.3339 Q188.6563,283.0527 188.0313,283.0527 Q186.6875,283.0527 186,284.1308 Q185.3125,285.1933 185.3125,287.287 Q185.3125,289.3808 186,290.4589 Q186.6875,291.5214 188.0313,291.5214 Q188.6563,291.5214 189.25,291.2558 Q189.8438,290.9745 190.4688,290.3964 L190.4688,293.1152 Z " fill="#000000"/><text fill="#D9B8FF" font-family="Helvetica" font-size="17" lengthAdjust="spacing" textLength="113" x="206.5" y="293.3598">aws_resource</text></g><!--class resource--><g id="elem_resource"><rect codeLine="35" fill="#3D176E" height="39.7891" id="resource" rx="2.5" ry="2.5" style="stroke:#000D19;stroke-width:0.5;" width="113" x="129.5" y="7"/><ellipse cx="144.5" cy="26.8945" fill="#ADD1B2" rx="11" ry="11" style="stroke:#181818;stroke-width:1.0;"/><path d="M147.4688,32.5352 Q146.8906,32.832 146.25,32.9727 Q145.6094,33.1289 144.9063,33.1289 Q142.4063,33.1289 141.0781,31.4883 Q139.7656,29.832 139.7656,26.707 Q139.7656,23.582 141.0781,21.9258 Q142.4063,20.2695 144.9063,20.2695 Q145.6094,20.2695 146.25,20.4258 Q146.9063,20.582 147.4688,20.8789 L147.4688,23.5977 Q146.8438,23.0195 146.25,22.7539 Q145.6563,22.4727 145.0313,22.4727 Q143.6875,22.4727 143,23.5508 Q142.3125,24.6133 142.3125,26.707 Q142.3125,28.8008 143,29.8789 Q143.6875,30.9414 145.0313,30.9414 Q145.6563,30.9414 146.25,30.6758 Q146.8438,30.3945 147.4688,29.8164 L147.4688,32.5352 Z " fill="#000000"/><text fill="#D9B8FF" font-family="Helvetica" font-size="17" lengthAdjust="spacing" textLength="71" x="163.5" y="32.7798">resource</text></g><!--reverse link ai_resource to ai_job--><g id="link_ai_resource_ai_job"><path codeLine="38" d="M125.2641,225.9567 C127.5641,263.7267 131.52,329.05 133.82,366.88 " fill="none" id="ai_resource-backto-ai_job" style="stroke:#FFAF37;stroke-width:2.0;"/><polygon fill="none" points="124.17,207.99,119.2752,226.3214,131.253,225.592,124.17,207.99" style="stroke:#FFAF37;stroke-width:2.0;"/></g><!--reverse link resource to ai_resource--><g id="link_resource_ai_resource"><path codeLine="39" d="M171.7613,63.781 C159.6513,94.301 142.75,136.9 130.63,167.47 " fill="none" id="resource-backto-ai_resource" style="stroke:#FFAF37;stroke-width:2.0;"/><polygon fill="none" points="178.4,47.05,166.1843,61.5681,177.3383,65.9939,178.4,47.05" style="stroke:#FFAF37;stroke-width:2.0;"/></g><!--reverse link ai_job to aws_bedrock_model_customization_job--><g id="link_ai_job_aws_bedrock_model_customization_job"><path codeLine="40" d="M147.9587,424.3625 C158.9087,454.8825 174.13,497.27 185.1,527.83 " fill="none" id="ai_job-backto-aws_bedrock_model_customization_job" style="stroke:#FFAF37;stroke-width:2.0;"/><polygon fill="none" points="141.88,407.42,142.3112,426.3888,153.6062,422.3363,141.88,407.42" style="stroke:#FFAF37;stroke-width:2.0;"/></g><!--reverse link aws_resource to aws_bedrock_model_customization_job--><g id="link_aws_resource_aws_bedrock_model_customization_job"><path codeLine="41" d="M241.8002,325.0535 C231.1002,372.7535 207.14,479.56 196.35,527.66 " fill="none" id="aws_resource-backto-aws_bedrock_model_customization_job" style="stroke:#FFAF37;stroke-width:2.0;"/><polygon fill="none" points="245.74,307.49,235.9457,323.7403,247.6547,326.3668,245.74,307.49" style="stroke:#FFAF37;stroke-width:2.0;"/></g><!--reverse link resource to aws_resource--><g id="link_resource_aws_resource"><path codeLine="42" d="M195.0317,64.3835 C206.8317,112.0935 233.29,218.98 245.2,267.08 " fill="none" id="resource-backto-aws_resource" style="stroke:#FFAF37;stroke-width:2.0;"/><polygon fill="none" points="190.71,46.91,189.2072,65.8241,200.8562,62.9429,190.71,46.91" style="stroke:#FFAF37;stroke-width:2.0;"/></g><!--SRC=[ZP1DJm8n48Rl_HLDE9E0H8742svYz4ACUDzqsrcek-sGQLS2wdyNPC7kbW-lx_jqvfakj08EPkdNt839W1npXRPBGSBm2H6k4YoHU2VFHJuOjij7jFugC1K6-1EK7-2r56tYRQ5bOS4vVXDK3q8MSyBAglruJyAwRGNM1rHI2kSctfFEAW-1Z1fdepnla-sXdO7g3-yWmf0KK8tqUZtL7xUHgwiktdqaPde3l1z-sXGzH9hHYb_gekME22IZGm_zMSSNePIsStuRPAzx9x90ZNos40fNEpeNfGlNE0y4wDTBIAAhO3nI-V0a_7mEPdBtTLpez1qp_idOzrz2uB0Y2OruvT8C5A4iKeCAobHMpgFH6-4rscZA5Zyrffc5k-w_kjrkxSFYz92mshWkhbknXih_dvruSdJu0G00]--></g></svg>

<svg xmlns="http://www.w3.org/2000/svg" width="384" height="573" viewBox="0 0 384 573"><rect width="91" height="39.789" x="89.5" y="367.37" fill="#3D176E" rx="2.5" ry="2.5" style="stroke:#000d19;stroke-width:.5"/><circle cx="104.5" cy="387.264" r="11" fill="#ADD1B2" style="stroke:#181818;stroke-width:1"/><path d="M107.469 392.905q-.578.297-1.219.438-.64.156-1.344.156-2.5 0-3.828-1.64-1.312-1.657-1.312-4.782t1.312-4.781q1.328-1.656 3.828-1.656.703 0 1.344.156.656.156 1.219.453v2.719q-.625-.579-1.219-.844-.594-.281-1.219-.281-1.344 0-2.031 1.078-.687 1.062-.687 3.156t.687 3.172q.688 1.062 2.031 1.062.625 0 1.219-.265.594-.281 1.219-.86z"/><text x="123.5" y="393.15" fill="#D9B8FF" font-family="Helvetica" font-size="17" textLength="49">ai_job</text><rect width="137" height="39.789" x="54.5" y="167.79" fill="#3D176E" rx="2.5" ry="2.5" style="stroke:#000d19;stroke-width:.5"/><circle cx="69.5" cy="187.685" r="11" fill="#ADD1B2" style="stroke:#181818;stroke-width:1"/><path d="M72.469 193.325q-.578.297-1.219.438-.64.156-1.344.156-2.5 0-3.828-1.64-1.312-1.657-1.312-4.782t1.312-4.781q1.328-1.656 3.828-1.656.703 0 1.344.156.656.156 1.219.453v2.719q-.625-.578-1.219-.844-.594-.281-1.219-.281-1.344 0-2.031 1.078-.687 1.062-.687 3.156t.687 3.172q.688 1.062 2.031 1.062.625 0 1.219-.265.594-.281 1.219-.86z"/><text x="88.5" y="193.57" fill="#D9B8FF" font-family="Helvetica" font-size="17" textLength="95">ai_resource</text><rect width="370" height="39.789" x="7" y="528.16" fill="#3D176E" rx="2.5" ry="2.5" style="stroke:#000d19;stroke-width:.5"/><circle cx="22" cy="548.054" r="11" fill="#ADD1B2" style="stroke:#181818;stroke-width:1"/><path d="M24.969 553.695q-.578.297-1.219.438-.64.156-1.344.156-2.5 0-3.828-1.64-1.312-1.657-1.312-4.782t1.312-4.781q1.328-1.657 3.828-1.657.703 0 1.344.157.656.156 1.219.453v2.719q-.625-.579-1.219-.844-.594-.281-1.219-.281-1.343 0-2.031 1.078-.687 1.062-.687 3.156t.687 3.172q.688 1.062 2.031 1.062.625 0 1.219-.265.594-.282 1.219-.86z"/><text x="41" y="553.94" fill="#D9B8FF" font-family="Helvetica" font-size="17" textLength="328">aws_bedrock_model_customization_job</text><rect width="155" height="39.789" x="172.5" y="267.58" fill="#3D176E" rx="2.5" ry="2.5" style="stroke:#000d19;stroke-width:.5"/><circle cx="187.5" cy="287.474" r="11" fill="#ADD1B2" style="stroke:#181818;stroke-width:1"/><path d="M190.469 293.115q-.578.297-1.219.438-.64.156-1.344.156-2.5 0-3.828-1.64-1.312-1.657-1.312-4.782t1.312-4.781q1.328-1.656 3.828-1.656.703 0 1.344.156.656.156 1.219.453v2.719q-.625-.579-1.219-.844-.594-.281-1.219-.281-1.344 0-2.031 1.078-.687 1.062-.687 3.156t.687 3.172q.688 1.062 2.031 1.062.625 0 1.219-.265.594-.281 1.219-.86z"/><text x="206.5" y="293.36" fill="#D9B8FF" font-family="Helvetica" font-size="17" textLength="113">aws_resource</text><rect width="113" height="39.789" x="129.5" y="7" fill="#3D176E" rx="2.5" ry="2.5" style="stroke:#000d19;stroke-width:.5"/><circle cx="144.5" cy="26.895" r="11" fill="#ADD1B2" style="stroke:#181818;stroke-width:1"/><path d="M147.469 32.535q-.578.297-1.219.438-.64.156-1.344.156-2.5 0-3.828-1.64-1.312-1.657-1.312-4.782t1.312-4.781q1.328-1.656 3.828-1.656.703 0 1.344.156.656.156 1.219.453v2.719q-.625-.578-1.219-.844-.594-.281-1.219-.281-1.344 0-2.031 1.078-.687 1.062-.687 3.156t.687 3.172q.688 1.062 2.031 1.062.625 0 1.219-.265.594-.281 1.219-.86z"/><text x="163.5" y="32.78" fill="#D9B8FF" font-family="Helvetica" font-size="17" textLength="71">resource</text><path fill="none" d="M125.264 225.957c2.3 37.77 6.256 103.093 8.556 140.923m-9.65-158.89-4.895 18.331 11.978-.729z" style="stroke:#ffaf37;stroke-width:2"/><g fill="none"><path d="M171.761 63.781c-12.11 30.52-29.011 73.119-41.131 103.689" style="stroke:#ffaf37;stroke-width:2"/><path d="m178.4 47.05-12.216 14.518 11.154 4.426z" style="stroke:#ffaf37;stroke-width:2"/></g><path fill="none" d="M147.959 424.363c10.95 30.52 26.171 72.907 37.141 103.467m-43.22-120.41.431 18.969 11.295-4.053zm99.92-82.366L196.35 527.66m49.39-220.17-9.794 16.25 11.709 2.627zM195.032 64.384c11.8 47.71 38.258 154.596 50.168 202.696M190.71 46.91l-1.503 18.914 11.65-2.881z" style="stroke:#ffaf37;stroke-width:2"/></svg>
